icons/jiraalign/jiraalign-original-wordmark.svg

<?xml version="1.0" encoding="UTF-8"?>
<svg xmlns="http://www.w3.org/2000/svg" xmlns:xlink="http://www.w3.org/1999/xlink" width="128px" height="128px" viewBox="0 0 128 128" version="1.1">
<defs>
<linearGradient id="linear0" gradientUnits="userSpaceOnUse" x1="8.221" y1="20.546" x2="9.771" y2="12.639" gradientTransform="matrix(0.87671,0,0,0.87671,0,49.109)">
<stop offset="0.15" style="stop-color:rgb(0%,32.156863%,80%);stop-opacity:1;"/>
<stop offset="0.503" style="stop-color:rgb(5.490196%,39.215686%,87.058824%);stop-opacity:1;"/>
<stop offset="1" style="stop-color:rgb(14.901961%,51.764706%,100%);stop-opacity:1;"/>
</linearGradient>
<linearGradient id="linear1" gradientUnits="userSpaceOnUse" x1="11.391" y1="10.847" x2="9.84" y2="18.754" gradientTransform="matrix(0.87671,0,0,0.87671,0,49.109)">
<stop offset="0.15" style="stop-color:rgb(0%,32.156863%,80%);stop-opacity:1;"/>
<stop offset="0.503" style="stop-color:rgb(5.490196%,39.215686%,87.058824%);stop-opacity:1;"/>
<stop offset="1" style="stop-color:rgb(14.901961%,51.764706%,100%);stop-opacity:1;"/>
</linearGradient>
</defs>
<g id="surface1">
<path style=" stroke:none;fill-rule:nonzero;fill:rgb(14.509804%,21.960784%,34.509804%);fill-opacity:1;" d="M 31.464844 53.148438 L 33.949219 53.148438 L 33.949219 65.46875 C 33.949219 68.71875 32.472656 70.988281 29.042969 70.988281 C 27.753906 70.988281 26.746094 70.773438 26.054688 70.527344 L 26.054688 68.167969 C 26.808594 68.472656 27.722656 68.628906 28.632812 68.628906 C 30.742188 68.628906 31.464844 67.402344 31.464844 65.625 Z M 38.449219 52.199219 C 39.425781 52.199219 40.117188 52.78125 40.117188 53.824219 C 40.117188 54.835938 39.425781 55.449219 38.449219 55.449219 C 37.476562 55.449219 36.78125 54.867188 36.78125 53.824219 C 36.78125 52.78125 37.476562 52.199219 38.449219 52.199219 Z M 37.253906 57.378906 L 39.644531 57.378906 L 39.644531 70.867188 L 37.253906 70.867188 Z M 45.59375 70.867188 L 43.265625 70.867188 L 43.265625 57.378906 L 45.59375 57.378906 L 45.59375 59.738281 C 46.410156 58.144531 47.796875 57.011719 50.503906 57.164062 L 50.503906 59.433594 C 47.449219 59.128906 45.59375 60.015625 45.59375 62.898438 Z M 61.671875 68.445312 C 60.789062 70.222656 59.121094 71.140625 56.984375 71.140625 C 53.300781 71.140625 51.445312 68.105469 51.445312 64.121094 C 51.445312 60.320312 53.394531 57.101562 57.265625 57.101562 C 59.28125 57.101562 60.855469 57.992188 61.671875 59.738281 L 61.671875 57.378906 L 64.0625 57.378906 L 64.0625 70.867188 L 61.671875 70.867188 Z M 57.613281 68.964844 C 59.753906 68.964844 61.640625 67.648438 61.640625 64.644531 L 61.640625 63.570312 C 61.640625 60.566406 59.910156 59.246094 57.863281 59.246094 C 55.191406 59.246094 53.804688 60.964844 53.804688 64.089844 C 53.835938 67.371094 55.15625 68.964844 57.613281 68.964844 Z M 72.9375 66.882812 L 71.425781 70.867188 L 68.625 70.867188 L 75.800781 53.148438 L 78.945312 53.148438 L 86.121094 70.867188 L 83.320312 70.867188 L 81.808594 66.851562 C 80.171875 67.1875 78.757812 67.34375 77.308594 67.34375 C 75.894531 67.34375 74.476562 67.15625 72.9375 66.882812 Z M 81.054688 64.828125 L 77.371094 55.109375 L 73.691406 64.859375 C 75.046875 65.074219 76.175781 65.195312 77.277344 65.195312 C 78.441406 65.164062 79.640625 65.042969 81.054688 64.828125 Z M 91.46875 70.957031 C 89.203125 70.957031 87.757812 69.914062 87.757812 67.433594 L 87.757812 51.738281 L 90.148438 51.738281 L 90.148438 67.128906 C 90.148438 68.351562 90.964844 68.78125 92.003906 68.78125 C 92.257812 68.78125 92.414062 68.78125 92.695312 68.753906 L 92.695312 70.835938 C 92.507812 70.898438 92.097656 70.957031 91.46875 70.957031 Z M 96.21875 52.199219 C 97.195312 52.199219 97.886719 52.78125 97.886719 53.824219 C 97.886719 54.835938 97.195312 55.449219 96.21875 55.449219 C 95.246094 55.449219 94.554688 54.867188 94.554688 53.824219 C 94.554688 52.78125 95.246094 52.199219 96.21875 52.199219 Z M 94.992188 57.378906 L 97.382812 57.378906 L 97.382812 70.867188 L 94.992188 70.867188 Z M 110.316406 68.445312 C 109.4375 70.222656 107.769531 71.140625 105.628906 71.140625 C 101.980469 71.140625 100.152344 68.105469 100.152344 64.121094 C 100.152344 60.320312 102.074219 57.101562 105.910156 57.101562 C 107.925781 57.101562 109.5 57.992188 110.316406 59.738281 L 110.316406 57.378906 L 112.644531 57.378906 L 112.644531 69.640625 C 112.644531 73.59375 110.726562 76.261719 105.785156 76.261719 C 103.457031 76.261719 102.199219 75.953125 100.84375 75.523438 L 100.84375 73.257812 C 102.355469 73.746094 103.960938 74.054688 105.660156 74.054688 C 109.121094 74.054688 110.316406 72.246094 110.316406 69.730469 Z M 106.257812 68.964844 C 108.398438 68.964844 110.285156 67.648438 110.285156 64.644531 L 110.285156 63.570312 C 110.285156 60.566406 108.554688 59.246094 106.507812 59.246094 C 103.835938 59.246094 102.449219 60.964844 102.449219 64.089844 C 102.480469 67.371094 103.804688 68.964844 106.257812 68.964844 Z M 128 70.867188 L 125.609375 70.867188 L 125.609375 62.714844 C 125.609375 60.289062 124.601562 59.21875 122.335938 59.21875 C 120.132812 59.21875 118.59375 60.65625 118.59375 63.386719 L 118.59375 70.898438 L 116.203125 70.898438 L 116.203125 57.410156 L 118.59375 57.410156 L 118.59375 59.617188 C 119.472656 58.023438 121.109375 57.132812 122.964844 57.132812 C 126.144531 57.132812 127.96875 59.28125 127.96875 62.988281 L 127.96875 70.867188 Z M 128 70.867188 "/>
<path style=" stroke:none;fill-rule:nonzero;fill:url(#linear0);" d="M 0 54.183594 C 0 57.453125 2.644531 60.117188 5.882812 60.117188 L 11.328125 60.117188 L 11.328125 65.640625 L 17.210938 65.640625 L 17.210938 55.167969 C 17.210938 54.660156 16.800781 54.214844 16.300781 54.214844 Z M 0 54.183594 "/>
<path style=" stroke:none;fill-rule:nonzero;fill:url(#linear1);" d="M 17.179688 71.546875 C 17.179688 68.277344 14.535156 65.640625 11.296875 65.640625 L 5.882812 65.640625 L 5.882812 60.117188 L 0 60.117188 L 0 70.59375 C 0 71.101562 0.410156 71.546875 0.910156 71.546875 Z M 17.179688 71.546875 "/>
</g>
</svg>

<svg xmlns="http://www.w3.org/2000/svg" fill="none" viewBox="0 0 128 128"><path fill="#253858" d="M31.465 53.15h2.486v12.32c0 3.25-1.479 5.518-4.909 5.518-1.29 0-2.296-.215-2.989-.46v-2.36c.755.306 1.668.46 2.58.46 2.109 0 2.832-1.227 2.832-3.004zm6.985-.951c.976 0 1.668.582 1.668 1.625 0 1.011-.692 1.624-1.668 1.624-.975 0-1.667-.582-1.667-1.624 0-1.043.692-1.625 1.667-1.625zm-1.195 5.18h2.391v13.487h-2.391zm8.338 13.487h-2.328V57.38h2.328v2.36c.818-1.594 2.203-2.728 4.909-2.574v2.268c-3.053-.307-4.909.582-4.909 3.463zm16.079-2.421c-.881 1.777-2.549 2.697-4.689 2.697-3.681 0-5.537-3.035-5.537-7.02 0-3.8 1.95-7.019 5.82-7.019 2.014 0 3.588.89 4.406 2.636v-2.36h2.391v13.487h-2.391zm-4.06.52c2.14 0 4.028-1.317 4.028-4.321V63.57c0-3.004-1.73-4.322-3.776-4.322-2.674 0-4.059 1.716-4.059 4.843.032 3.28 1.353 4.874 3.808 4.874zm15.324-2.084-1.51 3.985h-2.8L75.8 53.15h3.146l7.174 17.717h-2.8l-1.51-4.015c-1.637.337-3.053.49-4.5.49-1.416 0-2.832-.184-4.374-.46zm8.118-2.053-3.681-9.717-3.681 9.747c1.353.215 2.485.337 3.587.337 1.164-.03 2.36-.153 3.775-.367zm10.416 6.13c-2.266 0-3.714-1.042-3.714-3.525V51.739h2.392v15.388c0 1.226.818 1.655 1.856 1.655.252 0 .41 0 .693-.03v2.083c-.19.062-.598.123-1.228.123zm4.75-18.759c.976 0 1.668.582 1.668 1.625 0 1.011-.692 1.624-1.668 1.624-.975 0-1.667-.582-1.667-1.624 0-1.043.692-1.625 1.667-1.625zm-1.226 5.18h2.39v13.487h-2.39zm15.323 11.066c-.881 1.777-2.549 2.697-4.688 2.697-3.65 0-5.475-3.035-5.475-7.02 0-3.8 1.919-7.019 5.758-7.019 2.013 0 3.587.89 4.405 2.636v-2.36h2.328V69.64c0 3.954-1.919 6.62-6.86 6.62-2.328 0-3.586-.306-4.94-.735v-2.268c1.511.49 3.116.797 4.815.797 3.46 0 4.657-1.809 4.657-4.322zm-4.06.52c2.14 0 4.028-1.317 4.028-4.321V63.57c0-3.004-1.73-4.322-3.776-4.322-2.674 0-4.058 1.716-4.058 4.843.031 3.28 1.353 4.874 3.807 4.874zM128 70.866h-2.39v-8.153c0-2.422-1.008-3.495-3.274-3.495-2.202 0-3.744 1.44-3.744 4.169v7.51h-2.39V57.41h2.39v2.207c.881-1.594 2.517-2.483 4.374-2.483 3.178 0 5.002 2.146 5.002 5.854v7.878z"/><path fill="url(#a)" d="M0 5.788c0 3.729 3.015 6.77 6.711 6.77h6.21v6.3h6.71V6.91c0-.58-.466-1.086-1.04-1.086z" transform="translate(0 49.109) scale(.87671)"/><path fill="url(#b)" d="M19.596 25.592c0-3.73-3.015-6.734-6.712-6.734H6.711v-6.3H0v11.948c0 .579.467 1.086 1.04 1.086z" transform="translate(0 49.109) scale(.87671)"/><defs><linearGradient id="a" x1="8.221" x2="9.771" y1="20.546" y2="12.639" gradientUnits="userSpaceOnUse"><stop offset=".15" stop-color="#0052CC"/><stop offset=".503" stop-color="#0E64DE"/><stop offset="1" stop-color="#2684FF"/></linearGradient><linearGradient id="b" x1="11.391" x2="9.84" y1="10.847" y2="18.754" gradientUnits="userSpaceOnUse"><stop offset=".15" stop-color="#0052CC"/><stop offset=".503" stop-color="#0E64DE"/><stop offset="1" stop-color="#2684FF"/></linearGradient></defs></svg>
